X:4
T:Polka Mazurka No. 35
M:3/4
L:1/8
K:Dm
a>f d z d z|a>g e z e z|A^cegfe|d^cdefg|\
a>f d z d z|a>g ez e z|A^cegfe|d z d z z2 :|
(fegfed)|d z ^c4|(A^cegfe)|(d^cdefd)|\
(fegfed)| ^c z b4|abagfe|d z d' z z2 :|
a>f d z d z|a>g e z e z|A^cegfe|d^cdefg|\
a>f d z d z|a>g e z e z|A^cefge|d z d z z2 ||
AB=Bcdc|a z f4|e>d B z B z|d>c A z A z|\
AB=Bcdc|a z f4|edcBAG|F z [Af] z z2 :|
